X:1
T:Title
%%score { ( 1 3 ) | ( 2 4 ) }
L:1/8
M:3/4
K:G
V:1 treble nm="Grand Piano"
V:3 treble 
V:2 bass 
V:4 bass 
V:1
 z2 z2[Q:1/4=100] [DB]>[CA] | [CA]2 [B,G]2 [Ec]>[DB] | B2 A2 AB | [Fd]3 [Fc] [DB][CA] | %4
[M:2/4] [B,G]4 |[M:1/4] [DB]>[CA] |[M:3/4] [CA]2 [B,G]2 [Ec]>[DB] | [DB]2 [CA]2 [DA][DB] | %8
 [Fd]3 [Fc] [DB][CA] |[M:2/4] [B,G]4 |[M:1/4] [=FG][FG] |[M:3/4] [Ec]>[Ec] [Ec]2 [^DG]2 | %12
 [DB]4 z2 | [^Ge]3 [Gd] [Ec][EB] | [Ec]6 | [Fc]>[FB] [FA][FB] [Fc][DFd] | [DGB]2 [=Fd]2 [Ec][EA] | %17
 GG F2 GA |[M:2/4] [B,DG]4 |] %19
V:2
 z2 z2 [G,,G,]>[G,,G,] | [G,,G,]2 [G,,G,]2 [G,,G,]>[G,,G,] | [D,G,D]2 [D,F,D]2 [D,F,D][D,G,D] | %3
 [D,A,]3 [D,A,] [D,F,][D,F,] |[M:2/4] [G,,G,]4 |[M:1/4] [D,F,]>[D,F,] | %6
[M:3/4] [G,,G,]2 [G,,G,]2 [E,^G,]>[E,G,] | [A,,A,]2 [A,,A,]2 [D,F,][D,G,] | %8
 [D,A,]3 [D,A,] [D,F,][D,F,] |[M:2/4] [G,,G,]4 |[M:1/4] [G,B,][G,B,] | %11
[M:3/4] [C,C]>[C,G,] [C,G,]2 [C,G,]2 | [G,,G,]G,, G,,2[K:treble] [G,DG][G,DG] | %13
 [E,E]3 [E,E] [E,^G,][E,G,] | A,-[E,A,] z G, F,E, | [D,A,]>[D,B,] [D,C][D,B,] [D,A,]D, | %16
 G,2 [B,,G,]2 [C,A,][C,C] | z2 z2 .B,2 |[M:2/4] G,,4 |] %19
V:3
 x6 | x6 | x6 | x6 |[M:2/4] x4 |[M:1/4] x2 |[M:3/4] x6 | x6 | x6 |[M:2/4] x4 |[M:1/4] x2 | %11
[M:3/4] x6 | z G, G,2 BB | x6 | x6 | x6 | x6 | x6 |[M:2/4] x4 |] %19
V:4
 x6 | x6 | x6 | x6 |[M:2/4] x4 |[M:1/4] x2 |[M:3/4] x6 | x6 | x6 |[M:2/4] x4 |[M:1/4] x2 | %11
[M:3/4] x6 | x4[K:treble] x2 | x6 | .A,,2 A,4 | x6 | x6 | [D,B,D][D,B,D] [D,A,D]2 [D,D]-[D,CD] | %18
[M:2/4] x4 |] %19

